X:6
T:Drowsy Maggie
M:4/4
L:1/8
K:E dor
"Em"E2 BE dEBE|E2 BE "D"AFDF|"Em"E2 BE dEBE|BABc "D"dAFD|
"Em"E2 BE dEBE|E2 BE "D"AFDF|"Em"E2 BE dEBE|1BABc "D"dAFD:|2BABc "D"dAFA
||
"D"d2 fd "A"c2 ec|"D"defg afge|d2 fd "A"c2 ec|"G"BABc "A"dAFA|
"D"d2 fd "A"c2 ec|"D"defg afge|afge "A"fded|"G"BABc "D"dAFD||
"Bm"(3dcB) fB (3dcB) fB|"A"(3cBA) eA fAeA|"Bm"(3dcB) fB (3dcB) fB|"D"fef
^g "A"aecA|
"Bm"(3dcB) fB (3dcB) fB|"A"(3cBA) eA fAeA|"D"defd "A"cdec|"G"BABc "D"dAF
D||
